icons/groovy.svg

<svg width="16" height="16" viewBox="0 0 16 16" fill="none" xmlns="http://www.w3.org/2000/svg">
<path fill-rule="evenodd" clip-rule="evenodd" d="M9.97162 1.58206C10.8522 2.11749 11.1133 3.12023 11.1133 3.91956C11.1133 4.67384 10.8201 5.40632 10.4334 6.02214C10.0426 6.6444 9.5216 7.20402 8.98103 7.62294C8.4596 8.02702 7.83386 8.3666 7.22771 8.42048C6.9101 8.44872 6.54839 8.40151 6.22698 8.18504C5.89895 7.9641 5.7067 7.63016 5.61694 7.2663C5.35688 6.21213 5.85305 5.18039 6.40798 4.49022C6.69764 4.12997 7.03898 3.81514 7.38913 3.58449C7.72046 3.36624 8.14151 3.16956 8.57742 3.16956V4.66956C8.57337 4.66994 8.54089 4.67303 8.47691 4.69734C8.40687 4.72396 8.31763 4.76906 8.21426 4.83715C8.00633 4.97411 7.77843 5.17959 7.57698 5.43014C7.14969 5.96157 6.97617 6.51338 7.07328 6.90703C7.07516 6.91467 7.07701 6.92148 7.07879 6.92753C7.08369 6.92727 7.08905 6.92689 7.09489 6.92637C7.284 6.90956 7.6349 6.76842 8.06221 6.43728C8.47037 6.12098 8.87017 5.69088 9.16307 5.22445C9.46001 4.75157 9.61328 4.29638 9.61328 3.91956C9.61328 3.36156 9.42788 3.00696 9.19231 2.86373C8.9682 2.72746 8.38701 2.5946 7.13056 3.23124C6.00041 3.80389 5.25826 4.83882 4.93354 5.90403C4.59801 7.00476 4.75369 7.95207 5.13855 8.42008C5.56709 8.94122 6.04916 9.15479 6.55161 9.19512C7.07994 9.23753 7.68265 9.09036 8.30516 8.78755C9.57439 8.17016 10.6681 7.03596 11.0301 6.30236L12.4003 6.35885C12.9243 7.68644 12.9242 9.63397 11.9504 11.213C10.9363 12.8573 8.96187 13.9595 5.84036 13.7162L5.95693 12.2207C8.63944 12.4298 10.0135 11.496 10.6737 10.4256C11.046 9.8218 11.2204 9.13029 11.2466 8.47455C10.613 9.11659 9.81207 9.72259 8.9613 10.1364C8.18862 10.5123 7.31241 10.761 6.43159 10.6903C5.52489 10.6175 4.66758 10.209 3.97996 9.3728C3.15219 8.36617 3.08465 6.82503 3.49873 5.46665C3.92364 4.07274 4.90395 2.67789 6.45258 1.89321C7.87491 1.17251 9.07957 1.03966 9.97162 1.58206ZM7.03433 6.92593L7.03628 6.92639Z" fill="#68B2E4"/>
<path d="M5.86422 13.9817C5.72018 13.8343 5.34569 13.0615 5 12C10.1661 12.7051 11.1861 9.87624 11.0511 8.24989C11.4827 7.0644 12.8457 5.60777 12.5 9.5C12.1543 13.3922 7.7367 14.1291 5.86422 13.9817Z" fill="#68B2E4"/>
</svg>

<svg xmlns="http://www.w3.org/2000/svg" width="16" height="16" fill="none" viewBox="0 0 16 16"><path fill="#68B2E4" fill-rule="evenodd" d="M9.972 1.582c.88.535 1.141 1.538 1.141 2.338 0 .754-.293 1.486-.68 2.102a6.3 6.3 0 0 1-1.452 1.6c-.521.405-1.147.745-1.753.798a1.53 1.53 0 0 1-1.001-.235c-.328-.22-.52-.555-.61-.919-.26-1.054.236-2.086.791-2.776.29-.36.631-.675.981-.906.331-.218.753-.414 1.188-.414v1.5a.4.4 0 0 0-.1.027q-.107.04-.263.14a2.9 2.9 0 0 0-.637.593c-.427.532-.6 1.083-.504 1.477l.006.02h.016c.189-.017.54-.159.967-.49a4.8 4.8 0 0 0 1.101-1.213c.297-.472.45-.928.45-1.304 0-.558-.185-.913-.42-1.056-.225-.137-.806-.27-2.062.367C6 3.804 5.258 4.84 4.934 5.904c-.336 1.1-.18 2.048.205 2.516.428.521.91.735 1.413.775.528.043 1.13-.105 1.753-.407 1.27-.618 2.363-1.752 2.725-2.486l1.37.057c.524 1.327.524 3.275-.45 4.854-1.014 1.644-2.988 2.747-6.11 2.503l.117-1.495c2.682.209 4.057-.725 4.717-1.795a4.04 4.04 0 0 0 .573-1.951 8.6 8.6 0 0 1-2.286 1.661c-.772.376-1.649.625-2.53.554-.906-.072-1.763-.481-2.451-1.317-.828-1.007-.895-2.548-.481-3.906.425-1.394 1.405-2.79 2.954-3.574 1.422-.72 2.627-.853 3.519-.31M7.034 6.926h.002Z" clip-rule="evenodd"/><path fill="#68B2E4" d="M5.864 13.982C5.72 13.834 5.346 13.062 5 12c5.166.705 6.186-2.124 6.051-3.75.432-1.186 1.795-2.642 1.449 1.25s-4.763 4.63-6.636 4.482"/></svg>
